packages/core/src/svgs/tokens/branded/ICHI.svg

<svg width="24" height="24" viewBox="0 0 24 24" fill="none" xmlns="http://www.w3.org/2000/svg">
<path d="M21.8359 4.29382C22.1295 4.73126 22.0109 5.31867 21.5734 5.60612C20.8673 6.07481 19.4925 6.74345 17.624 7.25588V11.374H18.6614C19.1925 11.374 19.6238 11.7927 19.6238 12.3114C19.6238 12.83 19.1925 13.2487 18.6614 13.2487H17.624V16.742C19.4987 17.2544 20.8735 17.9292 21.5734 18.3855C22.0109 18.6791 22.1358 19.2666 21.8359 19.6978C21.5359 20.1352 20.9361 20.2539 20.4924 19.9602C19.5175 19.3166 16.2742 17.8668 11.8749 17.8668C7.47555 17.8668 4.41351 19.3166 3.53238 19.9414C3.1012 20.2539 2.49504 20.154 2.18259 19.729C2.10837 19.6282 2.05509 19.5136 2.02589 19.392C1.99668 19.2702 1.99213 19.144 2.01252 19.0205C2.0329 18.897 2.0778 18.7789 2.14458 18.673C2.21135 18.5671 2.29864 18.4757 2.40131 18.4043C3.08869 17.9168 4.46349 17.2169 6.37571 16.692V13.2487H5.58832C5.05715 13.2487 4.62597 12.83 4.62597 12.3114C4.62597 11.7927 5.0634 11.374 5.58832 11.374H6.37571V7.30586C4.96673 6.95467 3.62436 6.37636 2.40131 5.59363C2.29864 5.52206 2.21135 5.43065 2.14458 5.32481C2.0778 5.21898 2.0329 5.10083 2.01252 4.97736C1.99213 4.85388 1.99668 4.72758 2.02589 4.60589C2.05509 4.48421 2.10837 4.3696 2.18259 4.26883C2.49504 3.84389 3.1012 3.75015 3.53238 4.05635C4.78035 4.8271 6.15589 5.36885 7.59426 5.65612C8.81284 5.93732 10.2564 6.13104 11.8749 6.13104C16.2742 6.13104 19.5175 4.68126 20.4986 4.03762C20.9361 3.74391 21.5359 3.86264 21.8359 4.29382ZM15.7493 16.317V13.2487H8.25042V16.2795C10.7326 15.8492 13.2715 15.8619 15.7493 16.317ZM15.7493 11.374V7.68706C13.27 8.12873 10.7332 8.1393 8.25042 7.7183V11.374H15.7493Z" fill="#0065E3"/>
</svg>

<svg xmlns="http://www.w3.org/2000/svg" width="24" height="24" fill="none" viewBox="0 0 24 24">
    <path fill="#0065E3" d="M21.836 4.294a.94.94 0 0 1-.263 1.312c-.706.469-2.08 1.137-3.949 1.65v4.118h1.037a.95.95 0 0 1 .963.937.95.95 0 0 1-.963.938h-1.037v3.493c1.875.512 3.25 1.187 3.95 1.643a.937.937 0 0 1 .262 1.313c-.3.437-.9.556-1.344.262-.975-.643-4.218-2.093-8.617-2.093s-7.461 1.45-8.343 2.074a.973.973 0 0 1-1.35-.212.94.94 0 0 1 .22-1.325c.687-.487 2.061-1.187 3.974-1.712v-3.443h-.788a.95.95 0 0 1-.962-.938c0-.518.437-.937.962-.937h.788V7.306A13.4 13.4 0 0 1 2.4 5.594a.937.937 0 0 1-.218-1.325.98.98 0 0 1 1.35-.213 12.3 12.3 0 0 0 4.061 1.6c1.219.281 2.662.475 4.28.475 4.4 0 7.643-1.45 8.625-2.093a.976.976 0 0 1 1.337.256m-6.087 12.023v-3.068H8.25v3.03a21.3 21.3 0 0 1 7.5.038m0-4.943V7.687a21.9 21.9 0 0 1-7.499.031v3.656z"/>
</svg>
